X: 9671
T: Deaf Shepherd, The
R: reel
M: 4/4
K: Eminor
|:Be~e2 efge|fdef gfed|Be~e2 efge|f2e^c dcBA:|
FGEC A,CEG|GFDB, G,B,EF|GGEC A,CEG|FEDF DEEF|
G2EC A,CEG|GFDB, G,B,EF|GGEC A,CEG|FEDF DEEF||

